X:1
T:20 Mélodies
T:Le fil des cœurs
T:20. Le fil des cœurs
T:Augusta Holmès
T:(Holmès)
T:20 Mélodies
T:OpenScore (CC0)
T:OpenScore (CC0)
T:OpenScore (CC0)
T:OpenScore (CC0)
C:Holmès, Augusta
Z:(Composer)
Z:OpenScore (CC0)
%%score 1 { ( 2 5 7 ) | ( 3 4 6 ) }
L:1/8
Q:1/4=66
M:3/4
K:Ab
V:1 treble nm="Chant\nVoice"
V:2 treble nm="Piano"
V:5 treble 
V:7 treble 
V:3 treble 
V:4 treble 
V:6 treble 
V:1
"^Andante appassionato" z6 | z6 | z6 | z6[Q:1/4=50] | %4
w: ||||
!p![Q:1/4=66]"^a Tempo" (!^!c =D) E2-!<(! (3E _F =F!<)! | %5
w: Quand tu pars,   _ dé- ser-|
!>(! (3(!^!cE) _F!>)!!<(! (=F2 _G) =G!<)! |!f! (3(c"^cresc." E) F (3G A!f! c!>(! (!^!e3/2 d/) | %7
w: tant   _ ces bras,   _ Je|sens comme un fil qui me ti- re|
 (d2!>)! c2)!p! !tenuto!=f2 | (3_f e =d ((_d F/)!<(! _G/) =G c!<)! | %9
w: l'â- me... Un|fil si té- nu qu'on ne le sent|
!>(! (B2!>)! A2)!>(! (3:2:4!^!_c3/2 A/ _G/ _F/ | A2-!>)! (3:2:2A2!f! =D!<(! (3D ^C D!<)! | %11
w: pas   _ Tant que l'on se|grise   _ au phil- tre de|
[Q:1/4=60]"^rit."!>(! (!^!=F2 _F2)!>)! E2 |!p![Q:1/4=66]"^a Tempo" (E c) B2-!<(! (3B A E | %13
w: flam- * me;|Mais si- tôt   _ que l'on|
 (3(=EF) d!<)!!>(! (c2!>)! (3B) z _E |!mf! (3(!^!e"^cresc."_G) A (3(B _c) _d (3(!^!=d ^d) =B | %15
w: s'est * quit- té,    _ Le|fil   _ s'é- ti- re, s'é- ti- re, s'é-|
!f! (!^!^f2 =e2) ^d2 |!f!"^passionnément" (3:2:4^g3/2 ^f/ =e/ ^A/ ^G2 (3^F z F | %17
w: ti- * re|Jus- qu'à la tor- tu- re et|
!p! (3:2:4(=e3/2=d/) =c/ ^F/ (=E2 (3:2:4=D) z D/ D/ |!p! ^C2- C z z C/ C/ | %19
w: jus- * qu'au mar- ty- re, Et pour-|tant   _ Ce mar-|
!>(! (=C>_B)!>)! B2 z C | _C3 !tenuto!C !tenuto!_D !tenuto!_E | !tenuto!_B6- | B2 z2!p! E2 | %23
w: \- ty- * re est|u- ne vo- lup-|té!  |_ Car|
"^très chanté" A4 G2 | F2- (3F (GA) G E | F2 F z F2 |!f! d4 c2 | B4 F A |!<(! G F/ G/!<)! e4- | %29
w: si l'A-|mour   _ ten- dre et bar-|ba- re, qui|nous li-|a pour la|terre et les cieux,  |
!>(! e4-!>)! e z |!p! A4 G2 | F2- (3F G A (3:2:2G2 E | F2 F2 z2 |!f! d4 !tenuto!c2 | %34
w: _ _|Fait sai-|gner   _ nos cœurs qu'il sé-|\- pa- re,|En ti-|
 !tenuto!c !tenuto!B !tenuto!F4 |!<(! (3(GF) G e4-!<)! | e4- e z |!mf! e4 c2 | (A4 E) E | %39
w: rant le fil|ra- * di- eux  |_ _|Lors- qu'il|dai- gne, bri-|
!<(! (3(_F_G)!<)! A!f! (d4 | A2-) A z z!p! _F | (__B2 =A2) ^G2 | ^F2- (3F (^G=A) G =E | _E6- | %44
w: sant * ses ar-|mes,    _ U-|\- nir   _ en-|fin   _ nos * cœurs bri-|sés...  |
"^allarg." E4-[Q:1/4=52] E z[Q:1/4=60] |!mf![Q:1/4=66]"^a Tempo"!<(! (c =D) E2- (3E _F =F!<)! | %46
w: _ _|Nos bai- sers   _ ont le|
 !tenuto!_G !tenuto!=G!f! (!^!d2 E) z |!f!!<(! (e F) _G2- (3G =G _A | %48
w: goût des lar- mes,|Nos bai- sers   _ ont le|
 =A!<)! ^A!f! (!^!=e2 ^F/) z/ F |!f!!>(! (!tenuto!^f4 =e2 | !tenuto!_e2-)!>)! e z!p! (A3/2 C/) || %51
w: goût des lar- mes, des|lar- *|mes... * Et ce|
[M:2/4] (D/E/) F/ G/ D2- ||[M:3/4] (D2 !breath!C2)!pp! (B,2 | A2-) A z z2 | z6 | z6 | z6 | z6 | %58
w: sont * les meilleurs _|_ _ bai-|sers!   _|||||
 z6 | z6 | z6 |] %61
w: |||
V:2
!mf!"^Andante appassionato"!8va(!{/c''} (c'/!8va)! z/!p! =d e2-) e z | %1
!mf!"^Tempo rubato"!8va(!{/c''} (c'/!8va)! z/!p! =d e2-) e z | %2
!f!!8va(!{/^c''} (3:2:4^c'/!8va)! z/!mf! ^e^f-"_dim." (3fg^g- (3g=a^a- | %3
 (3^a=b=c' (3_d'=d'_e'!pp!"^poco rall."{/e'} .e[ee']/ z/ | %4
"^a Tempo\n"!8va(!{/c''} c'/!8va)! z/!p! =D E2-!<(! E z!<)! | %5
!8va(!{/c''} (3:2:4c'/!8va)! z/!p! E!<(!_F (=F2 _G)!<)!=G | %6
!f!{/c'} (3:2:4(c/"_cresc." z/ EF (3GA!f!c !^![Ace]>[Ad] |!>(! [Ad]2 [Ac]2-)!>)!!p! [Ac] z | %8
!p! (3!arpeggio![d_f]e=d _d2- d z |!>(! (!arpeggio![C-_G-B]2 [CGA]2)!>)!!>(! !arpeggio![=D^G=d]2- | %10
 [=D^G=d]4- [DGd]2!>)! |"^rit." [=G_d]4- [Gd]2 | %12
!p!"^a Tempo"!<(! ([EAc][cc'])!<)! [Bb]2-!>(! (3[Bb][Ac-a][Ece]!>)! | %13
!<(! (3[=Ed-=e][Fdf][dd']!<)!!>(! ([c_egc']2 [Bdgb]2)!>)! | %14
!mf! (3:2:4[e_c'e']/ z/"_cresc." _GA (3B_c_d (3=d^d=B |!f! (!^![=B^d^f]2 !^![B=e]2 !^![B^d]2) | %16
!f! (3:2:4!arpeggio!!^![^G^A=e^g]3/2^f/(=e/A/-) [Ae]2- [Ae] z | %17
!p! (3:2:4!arpeggio![^F=c=e]3/2=d/(=c/^F/- [Fc]2-) [Fc] z | %18
!p! (3:2:4!arpeggio![^E=B^e]3/2^d/B/E/ (^D2 ^C) z |!pp! !arpeggio![=E_B=d]6 | %20
!pp! !arpeggio![_E=A_e]6 |!pp! =d z c2!<(! (3B=B!mp!=c!<)! |!>(! x2!>)!!pp! !arpeggio![dd']4 | %23
 [cefac']"_M.G." [efac']2 [efac']2 [efac']- | [efac'] [efac']2 [efac']2 [efac'] | %25
 [dfabd'] [dfabd']2 [dfabd']2 [dfabd']- |!f! [dfabd'] [dfabd']2 [dfabd']2 [dfabd']- | %27
 [dfabd'] [dfabd']2 [dfabd']2 [dfabd'] | [dfgbd'] [fgbd']2 [fgbd']2 [fgbd'] | %29
!<(!{/[d'e']} e2{/[d'f']} f2{/[d'b']} b2!<)! |{/[c'a']} a/ z/!pp! [efac']2 [efac']2 [efac']- | %31
 [efac'] [efac']2 [efac']2 [efac'] | [dfabd'] [dfabd']2 [dfabd']2 [dfabd']- | %33
!f! [dfabd'] [dfabd']2 [dfabd']2 [dfabd']- | [dfabd'] [dfabd']2 [dfabd']2 [dfabd'] | %35
"_cresc." [dfgbd'] [fgbd']2 [fgbd']2 [fgbd'] |{/[d'e']} !^!e2{/[d'f']} !^!f2{/[d'b']} !^!b2 | %37
!mf!!p! !^![eac'e']4 !^![ceac']2 | !^![Acea]4 !^![EAce]2 |!f! !^![_fad'_f']4 !^![dfad']2 | %40
 !^![Ad_fa]4!>(! !^![_FAdf]2!>)! |"_M.D."!p! =a6- | =a4- a/ z/ x | %43
!f! !arpeggio![_d=g_e']/ z/!p!"_cresc." !^![_F_d_f]- (3[Fdf][Ede][Fdf] !^![=Fd=f]!^![_Gd_g]- | %44
 (3[_Gd_g][Fdf][Gdg]"^allarg." !^![=Gd=g]!^![Ada]!^![=Ad=a]!^![Bdb] | %45
!mf!"^a Tempo"!<(! (c'[=D=B=d] [Ece]2-) (3[Ece][_F_f][=F=f] | %46
 [_G_d_g][=Gd=g]!<)!!f! !^![dgd']2- [dgd'] z | %47
!f!!<(! ([e_ge'][F=df] [_Ge_g]2-) (3[Geg][=G=g][_A_a] | %48
 [=A=e=a]!<)![^Ae^a]!f! !^![=ea=e']2- [eae'] z |!f!!>(! (!tenuto![=B^d^f]4 !tenuto![B=e]2 | %50
 !tenuto![=c_e]2-)!>)! [ce] z z2 ||[M:2/4]!pp! !arpeggio![=G_df]4- ||[M:3/4]!>(! [Gdf]6!>)! | %53
!pp! [ce] [ce]2 [ce]2 [Ace]- | [Ace] [Ace]2 [ce]2 [Ace] | [ABd] [ABd]2 [ABf]2 [Bda]- | %56
 [Bda]"_dim." [dfb]2 [fad']2 [abf'] |!ppp! [ac'a']6 | [ac'a']6 | [ac'a']6- | %60
 [ac'a']2 z2 !fermata!z2 |] %61
V:3
!ped! !^![Ac]4-!ped-up!!ped! [Ac]2!ped-up! |!ped! !^![Ac]4-!ped-up!!ped! [Ac]2!ped-up! | %2
!ped! (3:2:4[^F=A]/ z/ ^E^F- (3FG^G- (3G=A^A- | %3
 (3^A=B=c (3_d=d_e!ped-up!!ped! !arpeggio![_B,_E=G_d]-[B,EGd]/ z/!ped-up! | %4
[K:bass]!ped! !arpeggio!!^![A,,E,C]=D,!ped-up! E,2- (3E,_F,=F, | %5
!ped! (3!arpeggio!!^![A,,E,C]E,_F,!ped-up! (=F,2 _G,)=G, | %6
!ped! (3(!arpeggio!!^![A,,E,C]E,F, (3G,A,C!ped-up!!ped! !^!_G3/2 _F/!ped-up! | %7
!ped! _F2 E2-) E!ped-up! z | (3:2:2z2 _D- D2- D z | [A,,E,]2- [A,,E,]2!ped! [=E,,=E,]2- | %10
 [=E,,=E,]4- [E,,E,]2!ped-up! |!ped! [_E,,_E,]4- [E,,E,]2!ped-up! |!ped! x2 B,2- (3B,A,E,!ped-up! | %13
!ped!{/E,,} (3=E,F,D (C2 B,2)!ped-up! |!ped! (3z _G,A, (3B,_C_D (3=D^D=B,!ped-up! | %15
[K:treble] (!^!=A2 !^!=G2 !^!^F2) |[K:bass]!ped! z2 [^C=E]2- [CE]!ped-up! z | %17
!ped! z2 [=A,=C]2- [A,C] z!ped-up! |!ped! [^C,,^C,]6!ped-up! | !arpeggio![=C,,=C,]6 | %20
 !arpeggio![_C,,_C,]6 |"_una corda"!ped!{/_B,,,} (3_B,,=F,_B,-"^M.G." B,4!ped-up! | %22
!ped! (3(!arpeggio![E,,E,][K:treble]B,E B4)!ped-up! |[K:bass]!ped! [A,,E,]6- | %24
 [A,,E,]4- [A,,E,]!ped-up! z |!ped! [E,,B,,]6- | [E,,B,,]6- | [E,,B,,]4- [E,,B,,]!ped-up! z | %28
!ped! [E,,B,,]6- | [E,,B,,]4- [E,,B,,]!ped-up! z |!ped! [A,,E,]6- | [A,,E,]4- [A,,E,]!ped-up! z | %32
!ped! [E,,B,,]6- | [E,,B,,]6- | [E,,B,,]4- [E,,B,,] z!ped-up! |!ped! [E,,B,,]6- | %36
 [E,,B,,]4- [E,,B,,]!ped-up! z |!mf!!ped! !^![C,,E,,A,,C,]4!ped-up!!ped! !^![E,,A,,C,E,]2!ped-up! | %38
!ped! !^![A,,C,E,A,]4!ped-up!!ped! !^![C,E,A,C]2!ped-up! | %39
!ped! !^![D,,_F,,A,,D,]4!ped-up!!ped! !^![_F,,A,,D,_F,]2!ped-up! | %40
!ped! !^![A,,D,_F,A,]4!ped-up!!ped! !^![D,F,A,D]2!ped-up! |!ped! [=A,,,=A,,]6- | %42
 [=A,,,=A,,]4- [A,,,A,,] z!ped-up! |!ped! (!///-!_E,,3 _E,3)!ped-up! | (!///-!E,,3 E,3) | %45
!ped! z =D, E,2- (3E,_F,=F,!ped-up! |!ped!{/E,,} _G,=G,!ped-up!!ped! (!^![E,D]2 E,)!ped-up! z | %47
!ped! z F, _G,2- (3G,=G,_A,!ped-up! | %48
!ped!{/^F,,} =A,^A,!ped-up!!ped! (!arpeggio!!^![^F,=E]2 F,) z!ped-up! | %49
[K:treble] (!tenuto!=A4 !tenuto!^G2 | !tenuto![_E_A]2-) [EA] z z2 ||[M:2/4][K:bass] [E,,E,]4- || %52
[M:3/4] [E,,E,]6 |"_una corda"!ped! A4 G2 | F2- (3FGA !tenuto!G!tenuto!E!ped-up! | %55
!ped! !tenuto!F6 | !tenuto!D6!ped-up! |!ped! !arpeggio![A,,E,C]6!ped-up! | %58
!ped! !arpeggio![A,,E,C]6!ped-up! |!ped! !arpeggio![A,,E,C]6- | [A,,E,C]2!ped-up! z2 !fermata!z2 |] %61
V:4
 E=D E2- (3E_F=F | E=D E2- (3E_F=F | =B,6- | =B,6 |[K:bass] x6 | x6 | x6 | x6 |{/E,,} E,4- E, z | %9
 x6 | x6 | x6 | E,C- C2- C2 | x2 !arpeggio!_E,2- E,2 | (([_C,,_C,]4 [=B,,,=B,,]2)) |[K:treble] x6 | %16
[K:bass] [^F,,^F,]4- [F,,F,] z | [=D,,=D,]4- [D,,D,] z | x6 | x6 | x6 | x6 | x2/3[K:treble] x16/3 | %23
[K:bass] x6 | x6 | x6 | x6 | x6 | x6 | x6 | x6 | x6 | x6 | x6 | x6 | x6 | x6 | x6 | x6 | x6 | x6 | %41
 x6 | x6 | x6 | x6 | [A,,,A,,]2- [A,,,A,,] z z2 | x6 | [_A,,,_A,,]2- [A,,,A,,] z z2 | x6 | %49
[K:treble] z2 z2 =B,2 | x6 ||[M:2/4][K:bass] x4 ||[M:3/4] x6 |{/A,,} A,,4- A,, z | z6 | %55
{/[E,,E,]} [E,,E,]6- | [E,,E,]6 | x6 | x6 | x6 | x6 |] %61
V:5
!8va(! x/!8va)! x11/2 |!8va(! x/!8va)! x11/2 |!8va(! x/3!8va)! x17/3 | x6 |!8va(! x/!8va)! x11/2 | %5
!8va(! x/3!8va)! x17/3 | x6 | x6 | !arpeggio!G4- G z | x6 | x6 | (=F2 _F2) E2 | x6 | x6 | %14
 x2 !^!e2 !^!^f2 | x6 | x2 ^G2 ^F x | x2 =E2 =D x | x6 | x6 | x6 | !arpeggio![=D_A]=d A4 | %22
 [G_d]g f2 e2 | z [EFAc]2 [EFAc]2 [EFAc]- | [EFAc] [EFAc]2 [EFAc]2 [EFAc] | %25
 z [EFAB]2 [EFAB]2 [EFAB]- | [EFAB] [EFAB]2 [EFAB]2 [EFAB]- | [EFAB] [EFAB]2 [EFAB]2 [EFAB] | %28
 z [EFGBd]2 [EFGBd]2 [EFGBd]- | [EFGBd] [EFGBd]2 [EFGBd]2 [EFGBd] | z [EFAc]2 [EFAc]2 [EFAc]- | %31
 [EFAc] [EFAc]2 [EFAc]2 [EFAc] | z [EFAB]2 [EFAB]2 [EFAB]- | [EFAB] [EFAB]2 [EFAB]2 [EFAB]- | %34
 [EFAB] [EFAB]2 [EFAB]2 [EFAB] | z [EFGBd]2 [EFGBd]2 [EFGBd]- | [EFGBd] [EFGBd]2 [EFGBd]2 [EFGBd] | %37
 z"_avec majesté" [EAc]2 [EAc] z [EAc] | z [EAc]2 [EAc] z [EAc] | z [_FAd]2 [FAd] z [FAd] | %40
 z [_FAd]2 [FAd] z [FAd] | [^c=e] [ce]2 [ce]2 [=Ace] | [=A^c=e] [Ace]2 [ce] x [^c=e^g] | x6 | x6 | %45
 x6 | x6 | x6 | x6 | x6 | x6 ||[M:2/4] x4 ||[M:3/4] x6 | x6 | x6 | x6 | x6 | x6 | x6 | x6 | x6 |] %61
V:6
 x6 | x6 | x6 | x6 |[K:bass] x6 | x6 | x6 | x6 | x6 | x6 | x6 | x6 | !arpeggio![A,,E,]4- [A,,E,]2 | %13
 x6 | x6 |[K:treble] x6 |[K:bass] x6 | x6 | x6 | x6 | x6 | x6 | x2/3[K:treble] x16/3 |[K:bass] x6 | %24
 x6 | x6 | x6 | x6 | x6 | x6 | x6 | x6 | x6 | x6 | x6 | x6 | x6 | x6 | x6 | x6 | x6 | x6 | x6 | %43
 x6 | x6 | x6 | x6 | x6 | x6 |[K:treble] x6 | x6 ||[M:2/4][K:bass] x4 ||[M:3/4] x6 | x6 | x6 | x6 | %56
 x6 | x6 | x6 | x6 | x6 |] %61
V:7
!8va(! x/!8va)! x11/2 |!8va(! x/!8va)! x11/2 |!8va(! x/3!8va)! x17/3 | x6 |!8va(! x/!8va)! x11/2 | %5
!8va(! x/3!8va)! x17/3 | x6 | x6 | x6 | x6 | x6 | x6 | x6 | x6 | x6 | x6 | x6 | x6 | x6 | x6 | x6 | %21
 x6 | x6 | x6 | x6 | x6 | x6 | x6 | x6 | x6 | x6 | x6 | x6 | x6 | x6 | x6 | x6 | x6 | x6 | x6 | %40
 x6 | =A4"_M.G." ^G2 | ^F2- (3F^G=A (G=E) | x6 | x6 | x6 | x6 | x6 | x6 | x6 | x6 ||[M:2/4] x4 || %52
[M:3/4] x6 | x6 | x6 | x6 | x6 | x6 | x6 | x6 | x6 |] %61

